X:1
T:Title
%%score { ( 1 3 ) | ( 2 4 ) }
L:1/8
M:6/8
K:G
V:1 treble nm="Grand Piano"
V:3 treble 
V:2 bass 
V:4 bass 
V:1
 z3 z2[Q:1/4=84] D | [DB]>[Ec][DB] ABA | [B,G]>[DF][CE] [B,D]2 [B,D] | EFG [^CA][CB][CA] | %4
 A3- A2 D | [DB]>[Ec][DB] ABA | [B,G]>[DF][CE] D2 d | dc[CEA] [B,DG][A,DF][CDA] | %8
[M:5/8] [G,B,DG]-[G,B,DG]- [G,B,DG]3 |[M:1/8] G |[M:3/4] G>G G[G,EG] [G,EG][^DA] | [DB]6 | %12
 [^CB]>[CA] [CA][CE] [CF][CG] | [DA]6[K:bass][K:treble] | [Bd]>[ce] [Bd] [GB]2 D | %15
 [DB]>[Ec] [DB] [B,G]2 D | E[Ec] [Ec]B- B/B/A |[M:5/8] G-G- G3 |] %18
V:2
 z3 z2 [G,,G,] | [G,,G,]>[G,,G,][G,,G,] [D,F,C][D,F,D][D,F,C] | %2
 [G,,G,]>[G,,G,][G,,G,] [G,,G,]2 [G,,G,] | [C,G,C][C,G,C][C,G,C] [A,,G,][A,,G,][A,,G,] | %4
 [D,F,D]3- [D,F,D]2 [D,F,] | [G,,G,]>[G,,G,][G,,G,] [D,F,C][D,F,D][D,F,C] | %6
 [G,,G,]>[G,,G,][G,,G,] [G,B,]2[K:treble] [^G,B,=F] | [A,E][K:bass][A,E]C, D,D,D, | %8
[M:5/8] G,,-G,,- G,,3 |[M:1/8] G, |[M:3/4] G,>G, G,C, C,[C,G,] | [G,,G,]G,, G,, G,,2 [G,,G,] | %12
 [A,,G,]>[A,,G,] [A,,G,][A,,G,] [A,,G,][A,,G,] | [D,F,]D, D, D,2 [D,F,] | %14
 [G,,G,]>[G,,G,] [G,,G,] [G,,G,]2 [G,,G,] | [G,,G,]>[G,,G,] [G,,G,] [G,,G,]2 [B,,G,] | %16
 [C,G,C][C,G,] [C,G,][D,G,D]- [D,G,D]/[D,G,D]/[D,F,C] |[M:5/8] B,-B,- B,3 |] %18
V:3
 x6 | x6 | x6 | x6 | x6 | x6 | x6 | x6 |[M:5/8] x5 |[M:1/8] x |[M:3/4] x6 | z G, G, G,2 [DB] | x6 | %13
 z[K:bass] F, F, F,2[K:treble] D | x6 | x6 | x6 |[M:5/8] z G,G, G,2 |] %18
V:4
 x6 | x6 | x6 | x6 | x6 | x6 | x5[K:treble] x | x[K:bass] x5 |[M:5/8] x5 |[M:1/8] x |[M:3/4] x6 | %11
 x6 | x6 | x6 | x6 | x6 | x6 |[M:5/8] G,D,B,, G,,2 |] %18

